X: 1907
T: The Widows
P: Mrs Young's Strathspey
C:Wm. Morrison
R:Strathspey (8x32)
B:RSCDS 19-7
Z:Anselm Lingnau <anselm@strathspey.org>
M:4/4
L:1/8
K:GMix
%
E|"C"C>c c<E G2 G>A|C>c c<E "G"D2 E>F|\
  "C"C>c c<E G>A c>d|"F"c>A "C"c>E "G"D2 DE|
  "C"C>c c<E G2 G>A|C>c c<E "G"D2 E>F|\
  "C"C>c c<E G>A c>d|"F"c>A "C"c>E "G"D2 D||
e/f/|"C"g>c a/g/f/e/ g>e a/g/f/e/|c>g a/g/f/e/ "G"d2 de/f/|\
     "C"g>c a/g/f/e/ "F"A>g "A7"e>g|"Dm"f>g a/g/f/e/ "G"d2 d>e|
     "C"g>c a/g/f/e/ g>e a/g/f/e/|c>g a/g/f/e/ "G"d2 de/f/|\
     "C"g>e "G"f>d "C"e>c "F"e>d|"Dm"c>A "C"c>E "G"D2 D|]
%%center Book19/1907-Widows-AL.abc

%%sep 1 1 500
%%sep 1 1 500

